X: 19529
T: James And The Giant Peach
R: jig
M: 6/8
K: Adorian
|:G|AcA EcA|BGG dGG|AcA EcA|BGG dBG|
AcA EcA|BGG dGG|Ecc BAG|EFG A2:|
|:g|age aba|gef ged|cAG cAe|dcA G2 g|
age aba|gef g2 d|Bgg BAG|EFG A2:|
|:D|EAA DAA|EAD EAc|dDc BAG|AGE DFG|
EAA DAA|EAD EAc|dgd BAG|EFG A2:|

